remix/Media/picture-in-picture-fill.svg

<svg viewBox="0 0 24 24" fill="currentColor" xmlns="http://www.w3.org/2000/svg"><path d="M21 3C21.5523 3 22 3.44772 22 4V11H20V5H4V19H10V21H3C2.44772 21 2 20.5523 2 20V4C2 3.44772 2.44772 3 3 3H21ZM21 13C21.5523 13 22 13.4477 22 14V20C22 20.5523 21.5523 21 21 21H13C12.4477 21 12 20.5523 12 20V14C12 13.4477 12.4477 13 13 13H21Z"/></svg>

<svg viewBox="0 0 24 24" xmlns="http://www.w3.org/2000/svg"><path fill="none" d="M0 0h24v24H0Z"/><path d="M21 3v0c.55 0 1 .44 1 1v7h-2V5H4v14h6v2H3v0c-.56 0-1-.45-1-1V4v0c0-.56.44-1 1-1h18Zm0 10v0c.55 0 1 .44 1 1v6 0c0 .55-.45 1-1 1h-8v0c-.56 0-1-.45-1-1v-6 0c0-.56.44-1 1-1h8Z"/></svg>
